X:1
T:Title
%%score { ( 1 3 ) | ( 2 4 ) }
L:1/8
M:6/8
K:Bb
V:1 treble nm="Grand Piano"
V:3 treble 
V:2 bass 
V:4 bass 
V:1
 z3 z2[Q:1/4=90] [DF] | [DF][_D=E][=DF] [Fd]2 [DB] | G3- G2 B | ACE A2 G | [DF]3- [DF]2 [DF] | %5
 [DF][_D=E][=DF] G^FG | AG[EA] [DB][CA][FB] | cd[=Ec] [EB][EA][EG] | .F3 z3 | %9
 [DF][_D=E][=DF] [Fd]2 [DB] | G3- G2 B | Ace d2 c |[M:5/8] [DB]-[DB]- [DB]3 |[M:1/8] [DF] | %14
[M:3/4] [DF]6 | [EA]6 | ed c G2 A | B3 F2 [B,DF] | [A,EF]2 [A,EF][A,EF] [A,EF][A,EF] | %19
 [CEF]2 [A,EA] [Ec]2 [Ee] | [Fd][Ge] dc dc |[M:5/8] B2- [EB-] [DB]2 |] %22
V:2
 z3 z2 [B,,B,] | [B,,B,][B,,B,][B,,B,] [B,,B,]2 [B,,B,] | [E,B,E]3- [E,B,E]2 [E,G,E] | %3
 [F,F][F,A,][F,A,C] [F,CE]2 [F,A,E] | [B,,B,]3- [B,,B,]2 [B,,B,] | %5
 [B,,B,]2 [B,,B,] [E,B,E][E,A,E][E,B,E] | [C,F,]2 [C,F,] [B,,F,]2 [D,B,] | %7
 G,B,[C,A,] [C,G,][C,F,][C,=E,] | F,2 F, E,D,C, | [B,,B,]2 [B,,B,] [B,,B,]2 [B,,B,] | %10
 [E,B,E]3- [E,B,E]2 [E,G,E] | z A,[F,A,E] [F,A,F]2 [F,A,E] |[M:5/8] [B,,B,]-[B,,B,]- [B,,B,]3 | %13
[M:1/8] [B,,B,] |[M:3/4] [B,,B,]2 B,, B,,2 B,, | F,2 F, F,2 [F,A,E] | [B,E]2 z2 z2 | %17
 B,,2 B,, B,,2 B,, | F,2 E,D, C,B,, | A,,2 C, [E,G,]2 [C,G,] | F,F, [F,F][F,E] [F,F][F,E] | %21
[M:5/8] F,2 z z2 |] %22
V:3
 x6 | x6 | x6 | x6 | x6 | x6 | .E3 z3 | .=E3 z3 | z G,F [F,F]2 [A,F] | x6 | x6 | x6 |[M:5/8] x5 | %13
[M:1/8] x |[M:3/4] z2 B, B,2 [B,FB] | C2 C C2 c | x6 | [B,D]6 | x6 | x6 | x6 |[M:5/8] D2 z z2 |] %22
V:4
 x6 | x6 | x6 | x6 | x6 | x6 | x6 | .C,3 z3 | x6 | x6 | x6 | .[F,E]3 z3 |[M:5/8] x5 |[M:1/8] x | %14
[M:3/4] x6 | x6 | G,F, [E,G,E] [E,B,E]2 [F,E] | x6 | x6 | x6 | x6 | %21
[M:5/8] B,,2- [B,,-G,] [B,,F,]2 |] %22

